src/assets/icons/RobotIcon.svg

<svg viewBox="0 0 16 16" fill="none" xmlns="http://www.w3.org/2000/svg">
<path d="M12.1626 8.33794H11.9324C11.6561 7.55683 11.1956 6.91364 10.5509 6.45413L11.5639 5.44334C11.7482 5.53526 11.9324 5.58118 12.1626 5.58118C12.9455 5.58118 13.5441 4.98391 13.5441 4.2028C13.5441 3.42169 12.9455 2.82442 12.1626 2.82442C11.3798 2.82442 10.7811 3.42169 10.7811 4.2028C10.7811 4.43256 10.8272 4.61632 10.9193 4.80007L9.76806 5.9487C8.66286 5.44326 7.41951 5.44326 6.31431 5.9487L5.11698 4.80007C5.2091 4.61632 5.25513 4.43256 5.25513 4.2028C5.25513 3.42169 4.6565 2.82442 3.87362 2.82442C3.09075 2.82442 2.49212 3.42169 2.49212 4.2028C2.49212 4.98391 3.09075 5.58118 3.87362 5.58118C4.1039 5.58118 4.28808 5.53526 4.47225 5.44334L5.48533 6.45413C4.8867 6.91356 4.38012 7.55683 4.10382 8.33794H3.87362C3.09075 8.33794 2.49212 8.93521 2.49212 9.71632C2.49212 10.4974 3.09075 11.0947 3.87362 11.0947H4.1039C4.70253 12.7487 6.26832 13.8515 8.01809 13.8515C9.76802 13.8515 11.3337 12.7487 11.9323 11.0947H12.1626C12.9454 11.0947 13.5441 10.4974 13.5441 9.71632C13.5441 8.93521 12.9454 8.33794 12.1626 8.33794H12.1626ZM12.1626 10.1757H3.87362C3.64335 10.1757 3.41315 9.99199 3.41315 9.71632C3.41315 9.44064 3.64343 9.25688 3.87362 9.25688H12.1626C12.3929 9.25688 12.6231 9.44064 12.6231 9.71632C12.6231 9.99199 12.3929 10.1757 12.1626 10.1757Z" fill="currentColor"/>
</svg>

<svg xmlns="http://www.w3.org/2000/svg" fill="none" viewBox="0 0 16 16"><path fill="currentColor" d="M12.163 8.338h-.23c-.277-.781-.737-1.424-1.382-1.884l1.013-1.01c.184.091.368.137.599.137.782 0 1.381-.597 1.381-1.378 0-.781-.599-1.379-1.381-1.379-.783 0-1.382.598-1.382 1.379 0 .23.046.413.138.597L9.77 5.95a4.123 4.123 0 0 0-3.455 0L5.117 4.8a1.27 1.27 0 0 0 .138-.597c0-.781-.598-1.379-1.381-1.379s-1.382.598-1.382 1.379c0 .78.599 1.378 1.382 1.378.23 0 .414-.046.598-.138l1.013 1.011a4.124 4.124 0 0 0-1.381 1.884h-.23c-.783 0-1.382.597-1.382 1.378 0 .781.599 1.379 1.382 1.379h.23a4.17 4.17 0 0 0 3.914 2.756 4.17 4.17 0 0 0 3.914-2.756h.23c.783 0 1.382-.598 1.382-1.379 0-.78-.599-1.378-1.381-1.378Zm0 1.838h-8.29a.46.46 0 0 1-.46-.46c0-.275.23-.46.46-.46h8.29c.23 0 .46.185.46.46a.46.46 0 0 1-.46.46Z"/></svg>
